brandFactory_export/1.Light/Restaurante_1Light.svg

<?xml version="1.0" encoding="UTF-8"?>
<svg width="24px" height="24px" viewBox="0 0 24 24" version="1.1" xmlns="http://www.w3.org/2000/svg" xmlns:xlink="http://www.w3.org/1999/xlink">
    <title>1.Light/Restaurante_1Light</title>
    <g id="Symbols" stroke="none" stroke-width="1" fill="none" fill-rule="evenodd">
        <g id="1.Light/Restaurante_1Light" fill="#5CB615" fill-rule="nonzero">
            <path d="M9.09915966,9.68403361 C9.10588235,9.65714286 9.10588235,9.62689076 9.10588235,9.59663866 L9.10588235,7.31764706 L4.98823529,7.31764706 L4.98823529,9.59327731 C4.98823529,9.62352941 4.99159664,9.65378151 4.99495798,9.68067227 L6.07731092,9.68067227 C6.10756303,9.68067227 6.17815126,9.6907563 6.20840336,9.69747899 C6.46722689,9.74453782 6.64537815,9.98991597 6.60504202,10.2521008 C6.09411765,13.6638655 5.23361345,20.8134454 5.22352941,20.887395 C5.22689076,22.4134454 6.31260504,22.6655462 6.96134454,22.6756303 L7.15966387,22.6756303 C7.80840336,22.6621849 8.89411765,22.410084 8.89411765,20.8436975 C8.8907563,20.8302521 8.29579832,14.8840336 7.60336134,10.2991597 C7.53277311,10.0403361 7.68403361,9.77142857 7.94285714,9.70084034 C7.98319328,9.6907563 8.02689076,9.68403361 8.07058824,9.68403361 L9.09915966,9.68403361 L9.09915966,9.68403361 Z M9.59663866,0.0537815126 C9.86554622,0.0537815126 10.087395,0.272268908 10.087395,0.544537815 L10.087395,9.59327731 C10.087395,10.2016807 9.74789916,10.6621849 9.30420168,10.6621849 L8.65210084,10.6621849 C9.31092437,15.1865546 9.86890756,20.7361345 9.87563025,20.7932773 C9.8789916,22.8806723 8.42689076,23.6302521 7.18319328,23.6537815 L6.95462185,23.6537815 C5.71092437,23.6336134 4.25546218,22.8840336 4.25546218,20.8268908 C4.26890756,20.702521 5.04537815,14.2487395 5.56302521,10.6621849 L4.80336134,10.6621849 C4.35630252,10.6621849 4.01680672,10.2016807 4.01680672,9.59327731 C4.01680672,0.541176471 4.01680672,0.531092437 4.02016807,0.51092437 C4.0302521,0.248739496 4.25210084,0.0403361345 4.51428571,0.0504201681 L4.52436975,0.0504201681 C4.78991597,0.0605042017 4.99831933,0.278991597 4.99495798,0.544537815 L4.99495798,6.33613445 L6.50084034,6.33613445 L6.50084034,0.544537815 C6.48739496,0.275630252 6.69915966,0.0470588235 6.96806723,0.0336134454 C7.23697479,0.0201680672 7.46554622,0.231932773 7.4789916,0.500840336 L7.4789916,6.3394958 L9.11260504,6.3394958 L9.11260504,0.544537815 C9.10588235,0.275630252 9.32436975,0.0571428571 9.59663866,0.0537815126 Z M17.0890756,22.6756303 C17.7176471,22.6621849 18.7697479,22.4168067 18.7697479,20.9008403 C18.7663866,20.9008403 18.389916,17.1630252 17.8991597,13.3983193 C17.8890756,13.3613445 17.8857143,13.3210084 17.8857143,13.2806723 L17.8857143,13.2605042 C17.8857143,13.0621849 18.0033613,12.8907563 18.1747899,12.810084 L18.1747899,1.09579832 C16.4201681,1.34453782 15.112605,2.84705882 15.112605,4.62184874 L15.112605,12.789916 L15.6840336,12.789916 C15.9529412,12.789916 16.1747899,13.0117647 16.1747899,13.2806723 C16.1747899,13.3008403 16.1714286,13.3613445 16.1714286,13.3815126 C15.7142857,16.8168067 15.2168067,20.9411765 15.2168067,20.9445378 C15.2201681,22.4235294 16.2722689,22.6689076 16.897479,22.6756303 L17.0890756,22.6756303 L17.0890756,22.6756303 Z M18.9243697,13.697479 C19.3915966,17.3344538 19.7411765,20.8168067 19.7445437,20.8537815 C19.7478992,22.9008403 18.3226891,23.6336134 17.1058824,23.6571429 L16.8806723,23.6571429 C15.6605042,23.6403361 14.2352941,22.907563 14.2352941,20.887395 C14.2386555,20.8302521 14.6890756,17.0957983 15.1260504,13.7714286 L14.6218487,13.7714286 C14.3529412,13.7714286 14.1344538,13.5529412 14.1344538,13.2806723 L14.1344538,4.62184874 C14.1344538,2.11764706 16.1613445,0.087394958 18.6655462,0.0840336134 C18.9344538,0.0840336134 19.1529412,0.302521008 19.1529412,0.574789916 L19.1529412,13.2840336 C19.1529412,13.4487395 19.0689076,13.6067227 18.9243697,13.697479 Z" id="Restaurante_1Light"></path>
        </g>
    </g>
</svg>

<svg width="24" height="24" viewBox="0 0 24 24" xmlns="http://www.w3.org/2000/svg"><path d="M9.1 9.684c.006-.027.006-.057.006-.087v-2.28H4.988v2.276c0 .03.004.06.007.088h1.082c.03 0 .101.01.131.016a.49.49 0 01.397.555c-.51 3.412-1.371 10.561-1.381 10.635.003 1.526 1.089 1.779 1.737 1.789h.199c.648-.014 1.734-.266 1.734-1.832-.003-.014-.598-5.96-1.29-10.545a.487.487 0 01.467-.615h1.028zm.497-9.63c.269 0 .49.218.49.49v9.05c0 .608-.34 1.068-.783 1.068h-.652c.659 4.525 1.217 10.074 1.224 10.131.003 2.088-1.45 2.837-2.693 2.86h-.228c-1.244-.02-2.7-.769-2.7-2.826.014-.124.79-6.578 1.308-10.165h-.76c-.447 0-.786-.46-.786-1.069 0-9.052 0-9.062.003-9.082a.48.48 0 01.494-.46h.01c.266.01.474.228.471.494v5.791h1.506V.545a.491.491 0 01.467-.511A.491.491 0 017.48.5v5.838h1.634V.545a.483.483 0 01.484-.491zm7.492 22.622c.629-.014 1.68-.26 1.68-1.775-.003 0-.38-3.738-.87-7.503a.451.451 0 01-.013-.117v-.02c0-.199.117-.37.289-.45V1.095a3.562 3.562 0 00-3.062 3.526v8.168h.571c.269 0 .49.222.49.49l-.003.102c-.457 3.435-.954 7.56-.954 7.563.003 1.479 1.055 1.724 1.68 1.73h.192zm1.835-8.979c.468 3.637.817 7.12.82 7.157.004 2.047-1.421 2.78-2.638 2.803h-.225c-1.22-.017-2.646-.75-2.646-2.77.004-.057.454-3.791.891-7.116h-.504a.488.488 0 01-.488-.49V4.62A4.537 4.537 0 0118.666.085c.268 0 .487.219.487.49v12.71a.489.489 0 01-.229.413z" fill="#5CB615" fill-rule="nonzero"/></svg>
